X: 1
T: Cease Your Funning
B: Lowe's Collection, Book 5
R: reel
Z: 2005 John Chambers <jc:trillian.mit.edu>
M: C|
L: 1/8
K: Bb
F | B2Bf dBBd | e2ec AFFB | d2dB  GEEG | FBAc  B2B :|
F | B2df bfdB | G2ce gecB | Acf=e fdcB | cf=eg fefa |
  | babf dBBd | edec AFFB | d^cdB GEEG | FBAc  B2B |]
